packages/core/src/svgs/tokens/branded/XRT.svg

<svg width="24" height="24" viewBox="0 0 24 24" fill="none" xmlns="http://www.w3.org/2000/svg">
<path fill-rule="evenodd" clip-rule="evenodd" d="M12.3128 4.41556C12.4292 4.34488 12.5189 4.23802 12.5687 4.11137C12.6184 3.98473 12.6251 3.84528 12.5879 3.71441C12.5506 3.58356 12.4716 3.46852 12.3628 3.38694C12.2538 3.30534 12.1213 3.26172 11.9851 3.26275C11.8477 3.26313 11.7141 3.30898 11.6053 3.39313C11.4965 3.47729 11.4188 3.59505 11.3838 3.72807C11.3489 3.8611 11.3589 4.00193 11.4125 4.12863C11.466 4.25535 11.5597 4.36083 11.6793 4.42867L2.9069 19.5581C2.78592 19.4964 2.64807 19.4758 2.51437 19.4997C2.38064 19.5235 2.25834 19.5903 2.16605 19.6899C2.07376 19.7895 2.01654 19.9165 2.00307 20.0517C1.98961 20.1868 2.02065 20.3227 2.09146 20.4386C2.16226 20.5546 2.26899 20.6441 2.3954 20.6938C2.52179 20.7436 2.66096 20.7506 2.79174 20.714C2.92254 20.6773 3.03778 20.599 3.11996 20.4909C3.20215 20.3827 3.24677 20.2508 3.24706 20.1149H20.7233C20.7239 20.28 20.7898 20.4382 20.9068 20.5549C21.0239 20.6714 21.1823 20.7367 21.3475 20.7366C21.4325 20.7405 21.5174 20.727 21.5971 20.6968C21.6766 20.6667 21.7493 20.6207 21.8103 20.5614C21.8715 20.5023 21.9198 20.4311 21.9524 20.3524C21.9851 20.2739 22.0012 20.1894 21.9999 20.1043C21.9986 20.0192 21.98 19.9353 21.945 19.8577C21.9101 19.7801 21.8595 19.7105 21.7968 19.6531C21.7339 19.5957 21.6599 19.5519 21.5793 19.524C21.4989 19.4964 21.4136 19.4854 21.3288 19.492L12.3128 4.41556ZM21.0236 19.5813L11.9851 4.51105L3.14283 19.7691C3.14956 19.7793 3.15601 19.7897 3.16217 19.8003H20.8082C20.8606 19.7105 20.9349 19.6349 21.0236 19.5813Z" fill="#03A2E5"/>
<path d="M7.6167 16.9941L11.9832 14.7409L16.3548 16.9941H7.6167Z" fill="#545873"/>
<path d="M11.9857 9.50428L7.6167 16.9941L11.9857 14.7846V9.50428Z" fill="#00A8EB"/>
<path d="M11.9851 9.50428L16.3542 16.9941L11.9851 14.7846V9.50428Z" fill="#B4C0F2"/>
</svg>

<svg xmlns="http://www.w3.org/2000/svg" width="24" height="24" fill="none" viewBox="0 0 24 24">
    <path fill="#03A2E5" fill-rule="evenodd" d="M12.313 4.416a.622.622 0 1 0-.708-1.023.624.624 0 0 0 .074 1.036l-8.772 15.13a.623.623 0 1 0 .34.556h17.476a.625.625 0 0 0 .625.622.624.624 0 1 0-.02-1.245zm8.71 15.165-9.038-15.07L3.143 19.77l.02.031h17.645a.6.6 0 0 1 .216-.219" clip-rule="evenodd"/>
    <path fill="#545873" d="m7.617 16.994 4.366-2.253 4.372 2.253z"/>
    <path fill="#00A8EB" d="m11.986 9.504-4.37 7.49 4.37-2.21z"/>
    <path fill="#B4C0F2" d="m11.985 9.504 4.37 7.49-4.37-2.21z"/>
</svg>
